build/img/daikin-grey.svg

<svg width="109" height="40" viewBox="0 0 109 40" fill="none" xmlns="http://www.w3.org/2000/svg">
<g clip-path="url(#clip0)">
<path d="M24.825 9.3584H0.000366211V32.523L24.825 9.3584Z" fill="#A8B1BC"/>
<path d="M12.4109 9.3584H0V20.946L12.4109 9.3584Z" fill="#A8B1BC"/>
<path d="M59.4911 14.3873L56.2507 27.4907H61.9757L65.2144 14.3873H59.4911ZM45.6001 14.3853L38.2365 27.4887H42.0233L43.2455 25.3044H48.5024L48.8939 27.4887H54.4829L52.1071 14.3853H45.6001ZM46.4145 21.9811H45.1015L47.2185 18.2015L47.9053 21.9811H46.4145ZM85.6379 14.3873L82.4064 27.4907H88.1301L91.3641 14.3873H85.6379ZM83.0796 14.3873H77.2128L72.3022 18.6736L73.3737 14.3873H67.8864L64.654 27.4907H70.1246L71.2419 22.9669L74.167 27.4907H80.7884L75.8842 20.6286L83.0796 14.3873ZM33.4531 14.3933L31.9726 14.3885H24.8087L21.5775 27.4871H28.6904L31.5051 27.4907C35.4673 27.4907 39.367 24.5085 39.367 19.9392C39.3662 14.5622 33.4531 14.3933 33.4531 14.3933ZM33.7437 20.3419C33.7437 20.3419 33.3718 24.5984 29.7858 24.5984H27.7569L29.5439 17.5307H31.3851C32.044 17.5355 33.951 17.7077 33.7437 20.3419ZM105.036 14.3853L103.126 22.1013L100.583 14.3853H94.2162L90.9818 27.4907H94.9408L96.8686 19.7073L99.4205 27.4907H105.76L109 14.3853H105.036Z" fill="#A8B1BC"/>
</g>
<defs>
<clipPath id="clip0">
<rect width="109" height="40" fill="#A8B1BC"/>
</clipPath>
</defs>
</svg>

<svg width="109" height="40" viewBox="0 0 109 40" fill="none" xmlns="http://www.w3.org/2000/svg"><g clip-path="url(#clip0)" fill="#A8B1BC"><path d="M24.825 9.358H0v23.165L24.825 9.358z"/><path d="M12.41 9.358H0v11.588L12.41 9.358zm47.081 5.029l-3.24 13.104h5.725l3.238-13.104h-5.723zm-13.89-.002L38.236 27.49h3.786l1.222-2.185h5.257l.392 2.185h5.589l-2.376-13.104H45.6zm.813 7.596h-1.313l2.117-3.78.687 3.78h-1.49zm39.224-7.594l-3.232 13.104h5.724l3.234-13.104h-5.726zm-2.558 0h-5.867l-4.91 4.287 1.07-4.287h-5.487l-3.232 13.104h5.47l1.118-4.524 2.925 4.524h6.621l-4.904-6.862 7.196-6.242zm-49.627.006l-1.48-.005h-7.164l-3.232 13.1h7.113l2.815.003c3.962 0 7.862-2.982 7.862-7.552 0-5.377-5.914-5.546-5.914-5.546zm.29 5.949s-.371 4.256-3.957 4.256h-2.03l1.788-7.067h1.841c.659.005 2.566.177 2.359 2.81zm71.293-5.957l-1.91 7.716-2.543-7.716h-6.367l-3.234 13.106h3.959l1.928-7.784 2.552 7.784h6.339L109 14.385h-3.964z"/></g><defs><clipPath id="clip0"><path fill="#A8B1BC" d="M0 0h109v40H0z"/></clipPath></defs></svg>
